X: 20
T:Port Patrick
M:6/8
L:1/8
Q:120
S:THSP
R:jig
D:
Z:
K:G
"G"BAB GBd|"C"ecc Gce|"G"dBG dBG|"D"FGA ABc|
"G"~B3 GBd|1 "C"ecc Gce|"G"dBG cAF|"D"AGF "G"G2A
:|2 "C"ecc gfe|"G"dBG cAF|"D"AGF "G"G2A||:
"G"B2d gdB|"C"c2e gec|"G"B2d gdB|"D"A2g fed|
"G"B2d gdB|"C"c2e gec|"G"(3Bcd B cAF|"D"AGF "G"G2A:||
